X: 28
T:Shaskeen Reel, The
M:C|
L:1/8
R:Reel
K:G
F[|:DG~G2 ABcA|dedB cAAc|B2GB A2FA|GBAG FGEF|!
DG~G2 ABcA|dedB cAAe|~f3d edcA|1GBAF G2GF:|2GBAF G2Bc|]!
dggf g2fg|abag fddc|B2GB A2FA|GBAG FDDB|!
dggf g2fg|abag fdde|~f3d edcA|GBAF G2Bc||!
dggf g2fg|abag fddc|B2GB A2FA|GBAG FDDA|!
BG~G2 AF~F2|dB~B2 cAAe|~f3d edcA|GBAF G2GF|]!
